X: 1849
T: Sünbüli Sünbüli
C: Murat Ağa (Şeştari)
O: Turkey
F: http://compmusic.upf.edu/node/140
N: buselik--karce--muhammes--sunbuli_sunbuli--sestari_murat_aga
N: makam= buselik
N: form= karce
N: usul= muhammes = 32/4
M: 32/4
L: 1/16
K: C    
Q: 1/4=72
%%MIDI tuningsystem comma53
e4 d2 e2 d4 g2 f2  | f2 e2 e2 d2 e2 d2 c4  | \
w:   |   | 
c2 z2 d2 e2 d4 g2 f2  | f2 e2 e2 d2 e2 d2 c2 B2  | 
w:   |   | 
A4 A2 A2 A4 g2 f2  | f2 e2 e2 d2 c2 B2 A4  | \
w:   |   | 
c2 B2 A2 B2 c2 B2 A2 ^G2  | 
w:   | 
A2 B2 c2 d2 e2 d2 e4  | e4 d2 e2 d4 g2 f2  | \
w:   |   | 
f2 e2 e2 d2 e2 d2 c4  | c2 z2 d2 e2 d4 g2 f2  | 
w:   |   | 
f2 e2 e2 d2 e2 d2 c2 B2  | A4 A2 A2 A4 g2 f2  | \
w:   |   | 
f2 e2 e2 d2 c2 B2 A4  | 
w:   | 
c2 B2 A2 B2 c2 B2 A2 ^G2  | A8 z8  | \
w:   |   | 
e8 e2 d2 c4  | d6 f2 e2 d2 c4  | c2 B2 c2 d2 c2 B2 A4  | 
w:   |   |   | 
c2 B2 A2 ^G2 A8  | A4 z4 e2 d2 c2 B2  | \
w:   |   | 
c8 d4 e4  | z2 e4 c2 d4 g4  | ^f2 g2 f2 e2 e8  | 
w:   |   |   | 
d6 e2 e8  | f6 e2 d2 ^c2 d2 e2  | d6 e2 e8  | \
w:   |   |   | 
^f2 e2 f2 g2 f2 e2 d2 ^c2  | d6 z2 e2 ^f2 e2 f2  | 
w:   |   | 
g2 a2 g2 ^f2 a4 g2 f2  | e4 f2 e2 d4 e2 d2  | \
w:   |   | 
c2 d2 e2 d2 c2 B2 c4  | c6 e2 d2 c2 B2 c2  | 
w:   |   | 
d6 e2 d2 e2 d2 c2  | z2 c2 d2 e2 d2 c2 B2 c2  | \
w:   |   | 
d6 e2 e2 c2 d2 e2  | e6 z2 A4 g2 f2  | 
w:   |   | 
f2 e2 e2 d2 d4 _7/8e2 d2  | d2 c2 B2 c2 B2 c2 B2 A2  | \
w:   |   | 
A8 A4 B4  | G6 A2 A8  | 
w:   |   | 
c8 d2 c2 B2 A2  | G6 A2 A8  | c2 B2 c2 e2 d2 c2 B2 A2  | \
w:   |   |   | 
A8 a2 g2 f2 e2  | 
w:   | 
e6 d2 d4 _7/8e2 d2  | d2 c2 B2 c2 B2 c2 B2 A2  | \
w:   |   | 
A8 A4 B4  | G8 A8  | c16  | d6 e2 e6 c2  | 
w:   |   |   |   | 
d6 e2 e2 g2 ^f2 e2  | e6 z2 e4 e4  | \
w:   |   | 
a2 g2 f2 e2 d8  | z4 e2 f2 g4 a2 b2  | 
w:   |   | 
a2 g2 ^f2 e2 e6 z2  | G8 A8  | c16  | d6 e2 e6 c2  | \
w:   |   |   |   | 
d6 e2 e2 g2 ^f2 e2  | e6 z2 e4 e4  | 
w:   |   | 
a2 g2 f2 e2 d8  | z4 e2 f2 g4 a2 b2  | \
w:   |   | 
a2 g2 ^f2 e2 e6 z2  | e8 e2 d2 c4  | 
w:   |   | 
d6 f2 e2 d2 c4  | c2 B2 c2 d2 c2 B2 A4  | \
w:   |   | 
c2 B2 A2 ^G2 A8  | A4 z4 e2 d2 c2 B2  | 
w:   |   | 
c8 d4 e4  | z2 e4 c2 d4 g4  | ^f2 g2 f2 e2 e6 z2  | \
w:   |   |   | 
e8 e2 d2 c4  | d6 f2 e2 d2 c4  | 
w:   |   | 
c2 B2 c2 d2 c2 B2 A4  | c2 B2 A2 ^G2 A8  | \
w:   |   | 
A4 z4 e2 d2 c2 B2  | c8 d4 e4  | 
w:   |   | 
z2 e4 c2 d4 g4  | ^f2 g2 f2 e2 e6 z2  | \
w:   |   | 
d6 e2 e8  | f6 e2 d2 ^c2 d2 e2  | d6 e2 e8  | 
w:   |   |   | 
^f2 e2 f2 g2 f2 e2 d2 ^c2  | d6 z2 e2 ^f2 e2 f2  | \
w:   |   | 
g2 a2 g2 ^f2 b2 a2 g2 f2  | 
w:   | 
e4 f2 e2 d4 e2 d2  | c2 d2 e2 d2 c2 B2 c4  | \
w:   |   | 
c6 e2 d2 c2 B2 c2  | d6 e2 d2 e2 d2 c2  | 
w:   |   | 
z2 c2 d2 e2 d2 c2 B2 c2  | d6 e2 e2 c2 d2 e2  | \
w:   |   | 
e8 A4 g2 f2  | f2 e2 e2 d2 d4 _7/8e2 d2  | 
w:   |   | 
d2 c2 B2 c2 B2 c2 B2 A2  | A8 A4 B3 A  | \
w:   |   | 
G8 G4 A4  | A8 A4 c4  | c6 B2 A2 ^G2 A2 B2  | 
w:   |   |   | 
A2 B6 B8  | B4 z4 d2 c2 c2 B2  | B2 c2 B2 c2 B2 A2 ^G2 A B  | \
w:   |   |   | 
A2 B6 B2 c2 B2 A2  | 
w:   | 
A8 A4 B2 A2  | G8 G4 A4  | A8 A4 c4  | c6 B2 B2 A2 ^G2 A2  | \
w:   |   |   |   | 
B2 c2 d2 f2 e2 d2 c2 B2  | 
w:   | 
A6 z2 g2 f2 f2 e2  | e6 c2 d2 f2 e2 d2  | \
w:   |   | 
d2 c2 B2 c2 B2 c2 B2 A2  | A8 z8  | 
w:   |   | 
|


